icons/linkedin.svg

<svg fill="none" height="37" viewBox="0 0 37 37" width="37" xmlns="http://www.w3.org/2000/svg"><path d="m32.2896 27.8743c0 2.0808-1.6861 3.7669-3.7669 3.7669h-19.58784c-2.08008 0-3.76689-1.6861-3.76689-3.7669v-19.58788c0-2.08083 1.68681-3.76689 3.76689-3.76689h19.58784c2.0808 0 3.7669 1.68606 3.7669 3.76689z" fill="#0288d1"/><path d="m9.68945 14.3147h3.76685v12.8074h-3.76685zm1.87215-1.5068h-.0211c-1.124 0-1.85105-.8377-1.85105-1.8842 0-1.06904.74965-1.88268 1.89395-1.88268 1.1459 0 1.8519.81364 1.8729 1.88268 0 1.0457-.727 1.8842-1.8947 1.8842zm16.2089 14.3142h-3.7669v-6.855c0-1.6559-.9228-2.786-2.4047-2.786-1.1309 0-1.7426.7624-2.0394 1.4992-.1085.2637-.0761.993-.0761 1.3614v6.7804h-3.7669v-12.8074h3.7669v1.9708c.5432-.8408 1.3937-1.9708 3.5695-1.9708 2.6956 0 4.7169 1.6951 4.7169 5.48z" fill="#fff"/></svg>

<svg width="37" height="37" viewBox="0 0 37 37" fill="none" xmlns="http://www.w3.org/2000/svg">
<path d="M32.2896 27.8743C32.2896 29.9551 30.6035 31.6412 28.5227 31.6412H8.93486C6.85478 31.6412 5.16797 29.9551 5.16797 27.8743V8.28642C5.16797 6.20559 6.85478 4.51953 8.93486 4.51953H28.5227C30.6035 4.51953 32.2896 6.20559 32.2896 8.28642V27.8743Z" fill="#0288D1"/>
<path d="M9.68945 14.3147H13.4563V27.1221H9.68945V14.3147ZM11.5616 12.8079H11.5405C10.4165 12.8079 9.68945 11.9702 9.68945 10.9237C9.68945 9.85466 10.4391 9.04102 11.5834 9.04102C12.7293 9.04102 13.4353 9.85466 13.4563 10.9237C13.4563 11.9694 12.7293 12.8079 11.5616 12.8079ZM27.7705 27.1221H24.0036V20.2671C24.0036 18.6112 23.0808 17.4811 21.5989 17.4811C20.468 17.4811 19.8563 18.2435 19.5595 18.9803C19.451 19.244 19.4834 19.9733 19.4834 20.3417V27.1221H15.7165V14.3147H19.4834V16.2855C20.0266 15.4447 20.8771 14.3147 23.0529 14.3147C25.7485 14.3147 27.7698 16.0098 27.7698 19.7947L27.7705 27.1221Z" fill="white"/>
</svg>
